X:1
T:Jingle Bells
T:James Pierpont
T:Score
T:re arr. Ryan Bradford
T:©10.24.15 Arranged by Camden Brown
T:©10.24.15 Arranged by Camden Brown
T:©10.24.15 Arranged by Camden Brown
Z:©10.24.15 Arranged by Camden Brown
%%score 1 2 3 4
L:1/8
Q:1/4=174
M:4/4
K:Bb
V:1 treble transpose=-2 nm="Clarinete em B♭" snm="Cl. B♭"
V:2 treble transpose=-2 nm="B♭ Trumpet 2" snm="B♭ Tpt. 2"
V:3 bass nm="Trombone" snm="Trb."
V:4 treble transpose=-14 nm="Saxofone Tenor" snm="Sax. T."
V:1
[K:C] z8!f! | z8 |!>(! z8!>)! | z4 z!f! EF^F | .G2!mp! .e2 .d2 cG- | G4 z EF^F | %6
 G!slide!e- e2 .d2 cA- | A6 z G | Af- f2 .e2 dB | z4 z2 E/ z/ ^F/ z/ | %10
!<(! ^G/ z/ ^A/ z/ ^B/ z/ d/ z/ e/ z/ ^f/ z/ ^g/ z/ ^a/ z/!<)! |!f! .^b2 z2 z4 | z8 | z8 | z8 | %15
 z4 z!f! FG^G | Af- f2 .e2 .d2 | gggg z2 z a | z g- g2 .f2 dc | z!mf! (g^fg ^ga^ab | .c'2) z2 z4 | %21
 z4 z (gab | .c'2) z2 z4 | z4 z (fga) | .b2 z2 z4 | z8 | z8 | z (g^fg ^ga^ab | .c'2) z2 z4 | %29
 z4 z (gab | .c'2) z2 z4 | z4 z (fga | .b2) z2 z4 | z4 z2 z!f! g | z ^g- g2 .a2 bc'- | c'8- | c'8 | %37
 z _e'c'_b gfcd | f _e3 !^!c2 z2 |] %39
V:2
[K:C] z2!f! .C2 z2 .C2 | z2 .C2 z2 .C2 |!>(! z2 .C2 z2 .C2!>)! | z2 .C2 z2 .C2 | %4
 z2!mp! .C2 z2 .C2 | z2 .C2 z2 .C2 | z2 .C2 z2 .C2 | z2 .C2 z2 .C2 | z2 .F2 z2 .F2 | z2 .F2 z4 | %10
 z8 | z2 z2 z EF^F | .G2 .e2 .d2 cG- | G4 z ^FGF | .G2 .e2 .d2 cA | A4 z4 |!f! AA- A2 .A2 .A2 | %17
 eeee z2 z d | z d- d2 .c2 Bc | z8 |!f! .e2 .e2 e2- ec | ecde z4 | .e2 gg .c2 de- | e8 | %24
 z2 .f2 .f2 .f2 | feee z2 z!f! e | z d- d2 .d2 ed | z8 |!f! .e2 .e2 e2- ec | ecde z4 | %30
 .e2 gg .c2 de- | e8 | z2 .f2 .f2 .f2 | feee z2 z!f! e | z f- f2 .f2 z2 | z8 | z2 (3ccc ^c4 | %37
 z _ec_B GFCG | F _E3 !^!C2 z2 |] %39
V:3
 z2!f! .D,2 z2 .D,2 | z2 .E,2 z2 .E,2 |!>(! z2 .D,2 z2 .D,2!>)! | z2 .E,2 z2 .E,2!f! | %4
 z2!mp! .D,2 z2 .D,2 | z2 .E,2 z2 .E,2 | z2 .D,2 z2 .D,2 | z2 .E,2 z2 .E,2 | z2 .A,2 z2 .A,2 | %9
 z2 .A,2 A,4 | z!mp! !slide!F-!<(! F6-!<)! |!f! .F2 z2 z4 | z2!mp! .B,,2 z2 .D,2 | z2 .E,2 z4 | %14
 z2 .B,,2 z2 .D,2 | z2 .E,2 z4 |!<(! .E,2 z2 .=E,2 z2!<)! |!f! .F,2 _G,F, z D,_D,C, | %18
 z D,- D,2 .E,2 F,B, | z4!f! !>!F,4 |!f! B,2!mf! A,2 G,2 F,2 | B,2 A,2 G,2 F,2 | B,2 A,2 G,2 F,2 | %23
 B,2 A,2 G,2 F,2 | C2 F,2 G,2 A,2 |!mf! B,2 A,2 G,2 F,2!f! | z!f! G,- G,2 .A,2 G,_G, | %27
 z2!f! !>!F,,6!mf! | B,2 A,2 G,2 F,2 | B,2 A,2 G,2 F,2 | B,2 A,2 G,2 F,2 | B,2 A,2 G,2 F,2 | %32
 C2 F,2 G,2 A,2 | B,2 A,2 G,2 F, z | z4!mp! .G,2 z2 | z2!f! (3B,B,B, C4 | ^F4 =B4 | %37
 z F,G,A, B,CB,F, | E, _D,3 !^!B,,2 !^!B,,2 |] %39
V:4
[K:C]!f! .C2 z2 .E2 z2 | .F2 z (^F3 .G2) |!>(! .C2 z2 .E2 z2!>)! | .F2 z (^F3 .G2) | %4
!mp! .C2 z2 .E2 z2 | .F2 z (^F3 .G2) | .C2 z2 .E2 z2 | .F2 z (A3 .c2) | .F2 z2 .^F2 z2 | %9
 .G2 z (B3 .d2) |!<(! .G2 z2 .B2 z2!<)! |!f! .c2 G,6 |!mp! .C2 z2 .E2 z2 | .F2 z (^F3 .G2) | %14
 .C2 z2 .E2 z2 | .F2 z (A3 .c2) |!<(! .F2 z2 .^F2 z2!<)! |!f! .G2 _AG z2 z F | z E- E2 .F2 Gc | %19
 z4!f! !>!G4 |!f! c2 B2 A2 G2 | c2 B2 A2 G2 | c2 B2 A2 G2 | c2 B2 A2 G2 | d2 G2 A2 B2 | %25
 c2 B2 A2 G2 | z!f! A- A2 .B2 A_A | z2!f! !>!G,6 | c2 B2 A2 G2 | c2 B2 A2 G2 | c2 B2 A2 G2 | %31
 c2 B2 A2 G2 | d2 G2 A2 B2 | c2 B2 A2 G!mf!e | z _e- e2 .d2 z2 | z4!f! z2!f! (3ggg | ^g4 ^c'4 | %37
 z GAB cdcG | F _E3 !^!C2 !^!C2 |] %39

